X: 50
T: Confitebor tibi
N: Derived from Mar2013-Confitebor_tibi.krn
C: Johannes Martini
%%abc-version 2.0
%%abcx-abcm2ps-target-version 5.9.1 (29 Sep 2008)
%%abc-creator hum2abc beta
%%abcx-conversion-date 2019/02/17 07:19:41
%%abc-edited-by Jesse Rodin
%%abc-edited-by Chris Gage 01-27-2014
%%abcx-initial-encoding-date 2014/10/06/
%%humdrum-veritas 3102304836
%%humdrum-veritas-data 2616371851
%%linebreak <none>
%%barnumbers 0
L: 1/4
M: 4/2
Q: 1/2=120
%%staves {1 2}
V: 1 clef=treble
V: 2 clef=treble-8
K: F
[V:1] G4G4 | 
[V:2] G4B4 | 
[V:1] G2G2G4 | 
[V:2] B2B2B4 | 
[V:1] F2G2A4 | 
[V:2] A2B2c4 | 
[V:1] A4A2G2 | 
[V:2] A4c2B2 | 
[V:1] F2G4F2- | 
[V:2] A2G2B2A2 | 
[V:1] F2E2F4 ||  
[V:2] G4F4 ||  
[V:1] G4G2G2 | 
[V:2] G4B2B2 | 
[V:1] A2B4A2- | 
[V:2] c2d4c2 | 
[V:1] A2G2A4 | 
[V:2] B4A4 | 
[V:1] z4G4 | 
[V:2] z4B4 | 
[V:1] G2G2G2G2 | 
[V:2] B2B2B2B2 | 
[V:1] G4G4 | 
[V:2] B4G4 | 
[V:1] G2G2A4 | 
[V:2] B2B2c4 | 
[V:1] A2G4F2- | 
[V:2] A2B4A2 | 
[V:1] F2E2F4 ||  
[V:2] G4F4 ||  
[V:1] G4G2G2 | 
[V:2] G4B2B2 | 
[V:1] G4G2G2 | 
[V:2] B4B2B2 | 
[V:1] G2G2G2G2 | 
[V:2] B2B2B2B2 | 
[V:1] G2B4A2- | 
[V:2] B4d2c2 | 
[V:1] A2G2A4 | 
[V:2] B4A4 | 
[V:1] z4G2G2 | 
[V:2] z4B2B2 | 
[V:1] G2G2G2G2 | 
[V:2] B2B2B2B2 | 
[V:1] G4G4 | 
[V:2] G4B4 | 
[V:1] G2G2A4 | 
[V:2] B2B2c4 | 
[V:1] A2G2F2G2- | 
[V:2] c2B2A2B2- | 
[V:1] G2F4E2 | 
[V:2] B2c2G4 | 
[V:1] F8 ||  
[V:2] F8 ||  
[V:1] G4G2G2 | 
[V:2] G4B2B2 | 
[V:1] G2G2G4 | 
[V:2] B2B2B4 | 
[V:1] G2G2G2G2 | 
[V:2] B2B2B2B2 | 
[V:1] G2G2G4 | 
[V:2] B2B2B4 | 
[V:1] F4z4 | 
[V:2] A4z4 | 
[V:1] G4G2G2 | 
[V:2] B4B2B2 | 
[V:1] G4G2G2 | 
[V:2] B4B2B2 | 
[V:1] G2G2A2B2- | 
[V:2] G2B2c2d2- | 
[V:1] B2A4G2 | 
[V:2] d2c2B4 | 
[V:1] A4z4 | 
[V:2] A4z4 | 
[V:1] G4G2G2 | 
[V:2] B4B2B2 | 
[V:1] G4A4 | 
[V:2] B4A3B | 
[V:1] A2G4F2- | 
[V:2] c4B2A2 | 
[V:1] F2E2F4 ||  
[V:2] G4F4 ||  
[V:1] G4G2G2 | 
[V:2] G4B2B2 | 
[V:1] G4z2G2 | 
[V:2] B4G4 | 
[V:1] G2G2G4 | 
[V:2] B2B2B4 | 
[V:1] G2A2B2A2- | 
[V:2] B2c2d2A2 | 
[V:1] A2G2A4 | 
[V:2] B4A4 | 
[V:1] z4G2G2 | 
[V:2] z4B2B2 | 
[V:1] G4G4 | 
[V:2] B4B4 | 
[V:1] G2G2G2G2 | 
[V:2] B2B2B2B2 | 
[V:1] G4z2G2 | 
[V:2] B4G4 | 
[V:1] G2G2G4 | 
[V:2] B2B2B4 | 
[V:1] G4A4 | 
[V:2] B4A3B | 
[V:1] A2G4F2- | 
[V:2] c4B2A2 | 
[V:1] F2E2F4 ||  
[V:2] G4F4 ||  
[V:1] G4G2G2 | 
[V:2] G4B2B2 | 
[V:1] G4G2G2 | 
[V:2] B4B2B2 | 
[V:1] G2G2A2B2- | 
[V:2] B4c2d2- | 
[V:1] B2A4G2 | 
[V:2] d2c2B4 | 
[V:1] A4z4 | 
[V:2] A4z4 | 
[V:1] G2G2G4 | 
[V:2] B2B2B4 | 
[V:1] G2G2G2G2 | 
[V:2] B2B2B2B2 | 
[V:1] G4G2G2 | 
[V:2] G4B2B2 | 
[V:1] G4A4 | 
[V:2] B4A3B | 
[V:1] A2G4F2- | 
[V:2] c4B2A2 | 
[V:1] F2E2F4 ||  
[V:2] G4F4 ||  
[V:1] G4G2G2 | 
[V:2] G4B2B2 | 
[V:1] G4G2G2 | 
[V:2] B4B2B2 | 
[V:1] G4G4 | 
[V:2] B4B4 | 
[V:1] G2G2G4 | 
[V:2] B2B2B4 | 
[V:1] F4z4 | 
[V:2] A4z4 | 
[V:1] G4G2G2 | 
[V:2] G4B2B2 | 
[V:1] G4G2G2 | 
[V:2] B4B2B2 | 
[V:1] A2B4A2- | 
[V:2] c2d4c2 | 
[V:1] A2G2A4 | 
[V:2] B4A4 | 
[V:1] z4G2G2 | 
[V:2] z4B2B2 | 
[V:1] G2G2G2G2 | 
[V:2] B2B2B2B2 | 
[V:1] G4A4 | 
[V:2] B4A3B | 
[V:1] A2G4F2- | 
[V:2] c4B2A2 | 
[V:1] F2E2F4 ||  
[V:2] G4F4 ||  
[V:1] G2G2G2G2 | 
[V:2] G2G2B2B2 | 
[V:1] G4G2G2 | 
[V:2] B4B2B2 | 
[V:1] G2G2G4 | 
[V:2] B2B2B4 | 
[V:1] B4A2A2- | 
[V:2] B4c2A2 | 
[V:1] A2G2A4 | 
[V:2] B4A4 | 
[V:1] z4G2G2 | 
[V:2] z4B2B2 | 
[V:1] G2G2G2G2 | 
[V:2] B2B2B2B2 | 
[V:1] G4G4 | 
[V:2] G4B4 | 
[V:1] A4A2G2- | 
[V:2] A3Bc4 | 
[V:1] G2F4E2 | 
[V:2] B2A2G4 | 
[V:1] F8 ||  
[V:2] F8 ||  
[V:1] G2G2G2G2 | 
[V:2] G2G2B2B2 | 
[V:1] G2G2G4 | 
[V:2] B2B2B4 | 
[V:1] B2A4G2 | 
[V:2] d2c2B4 | 
[V:1] A4z4 | 
[V:2] A4z4 | 
[V:1] G4G2G2 | 
[V:2] B4B2B2 | 
[V:1] G4G2G2 | 
[V:2] B4B2B2 | 
[V:1] G2G2G4 | 
[V:2] B2B2B4 | 
[V:1] A4A2G2- | 
[V:2] A3Bc4 | 
[V:1] G2F4E2 | 
[V:2] B2A2G4 | 
[V:1] F8 ||  
[V:2] F8 ||  
[V:1] G2G2G4 | 
[V:2] G2G2B4 | 
[V:1] G4G2G2 | 
[V:2] B4B2B2 | 
[V:1] G2G2G4 | 
[V:2] B2B2G4 | 
[V:1] G2A2B4 | 
[V:2] B2c2d4 | 
[V:1] A2A4G2 | 
[V:2] c2A2B4 | 
[V:1] A4z4 | 
[V:2] A4z4 | 
[V:1] G4G2G2 | 
[V:2] B4B2B2 | 
[V:1] G2G2G4 | 
[V:2] B2B2G4 | 
[V:1] G2G2G4 | 
[V:2] B4B2B2 | 
[V:1] A4A2G2- | 
[V:2] A3Bc4 | 
[V:1] G2F4E2 | 
[V:2] B2A2G4 | 
[V:1] F8 ||  
[V:2] F8 ||  
[V:1] G4G2G2 | 
[V:2] G4B2B2 | 
[V:1] G4A2B2- | 
[V:2] B4c2d2- | 
[V:1] B2A4G2 | 
[V:2] d2c2B4 | 
[V:1] A4z4 | 
[V:2] A4z4 | 
[V:1] G4G2G2 | 
[V:2] B4B2B2 | 
[V:1] A4A2G2- | 
[V:2] A3Bc4 | 
[V:1] G2F4E2 | 
[V:2] B2A2G4 | 
[V:1] F8 ||  
[V:2] F8 ||  
[V:1] G4G2G2 | 
[V:2] G4B2B2 | 
[V:1] G4G2G2 | 
[V:2] B4B2B2 | 
[V:1] G2G2G4 | 
[V:2] B2B2G4 | 
[V:1] G2A2B2A2- | 
[V:2] B2c2d2A2 | 
[V:1] A2G2A4 | 
[V:2] B4A4 | 
[V:1] z4G2G2 | 
[V:2] z4B2B2 | 
[V:1] G2G2G4 | 
[V:2] B2B2G4 | 
[V:1] G2G2A4 | 
[V:2] B2B2c4 | 
[V:1] G3EF2G2- | 
[V:2] B2G2F2B2- | 
[V:1] G2F4E2 | 
[V:2] B2A2G4 | 
[V:1] F8 |]  
[V:2] F8 |]  



